Modules/BetterCms.Module.Root/Scss/assets/icons/manager-content.svg

<svg xmlns="http://www.w3.org/2000/svg" width="16" height="16" viewBox="0 0 16 16"><path d="m8 16c-4.418 0-8-3.582-8-8 0-4.418 3.582-8 8-8 4.418 0 8 3.582 8 8 0 4.418-3.582 8-8 8m-3-5h4v-1h-4v1m6-5h-6v1h6v-1m1 2h-7v1h7v-1" fill="#242424" fill-rule="evenodd"/></svg>

<svg xmlns="http://www.w3.org/2000/svg" xmlns:xlink="http://www.w3.org/1999/xlink" preserveAspectRatio="xMidYMid" width="16" height="16" viewBox="0 0 16 16">
  <defs>
    <style>
      .cls-1 {
        fill: #242424;
        fill-rule: evenodd;
      }
    </style>
  </defs>
  <path d="M8.000,16.000 C3.582,16.000 -0.000,12.418 -0.000,8.000 C-0.000,3.582 3.582,-0.000 8.000,-0.000 C12.418,-0.000 16.000,3.582 16.000,8.000 C16.000,12.418 12.418,16.000 8.000,16.000 ZM5.000,11.000 L9.000,11.000 L9.000,10.000 L5.000,10.000 L5.000,11.000 ZM11.000,6.000 L5.000,6.000 L5.000,7.000 L11.000,7.000 L11.000,6.000 ZM12.000,8.000 L5.000,8.000 L5.000,9.000 L12.000,9.000 L12.000,8.000 Z" class="cls-1"/>
</svg>
